src/assets/icons/nosearch.svg

<svg width="120" height="120" viewBox="0 0 120 120" fill="none" xmlns="http://www.w3.org/2000/svg">
<g opacity="0.5">
<path fill-rule="evenodd" clip-rule="evenodd" d="M97.0565 6.79174C98.4923 4.83723 101.241 4.41677 103.195 5.85261C105.15 7.28846 105.57 10.0369 104.134 11.9914L98.7861 19.2717C97.3502 21.2262 94.6018 21.6466 92.6473 20.2108C90.6928 18.775 90.2723 16.0265 91.7082 14.072L97.0565 6.79174ZM101.222 8.53915C100.751 8.1933 100.089 8.29458 99.743 8.76535L94.3947 16.0456C94.0488 16.5164 94.1501 17.1784 94.6209 17.5243C95.0917 17.8701 95.7537 17.7688 96.0995 17.2981L101.448 10.0178C101.794 9.54701 101.692 8.885 101.222 8.53915ZM17.8669 49.9283C17.8669 28.5793 35.1737 11.2725 56.5227 11.2725C77.8717 11.2725 95.1785 28.5793 95.1785 49.9283C95.1785 71.2773 77.8717 88.5841 56.5227 88.5841C35.1737 88.5841 17.8669 71.2773 17.8669 49.9283ZM56.5227 7.93898C33.3326 7.93898 14.5333 26.7382 14.5333 49.9283C14.5333 73.1184 33.3326 91.9177 56.5227 91.9177C64.1461 91.9177 71.2951 89.8861 77.4576 86.3347L82.9077 91.7848C82.752 94.101 83.5593 96.4699 85.3298 98.2403L102.147 115.058C105.402 118.312 110.678 118.312 113.933 115.058L117.559 111.431C120.814 108.177 120.814 102.9 117.559 99.6454L100.742 82.8282C98.971 81.0574 96.6015 80.2501 94.2848 80.4063L89.6328 75.7543C95.1966 68.6315 98.512 59.6671 98.512 49.9283C98.512 26.7382 79.7128 7.93898 56.5227 7.93898ZM90.6716 81.5075L87.4709 78.3068C85.3392 80.6302 82.9493 82.7129 80.3467 84.5094L84.0084 88.1711C84.3641 87.5575 84.8046 86.9796 85.3298 86.4544L88.9559 82.8283C89.4809 82.3033 90.0584 81.8631 90.6716 81.5075ZM75.7944 44.8818C76.6178 44.4701 76.9515 43.4689 76.5398 42.6456C76.1282 41.8222 75.127 41.4885 74.3036 41.9002L61.226 48.439C60.6614 48.7213 60.3047 49.2984 60.3047 49.9298C60.3047 50.5611 60.6614 51.1382 61.226 51.4206L74.3036 57.9594C75.127 58.3711 76.1282 58.0373 76.5398 57.214C76.9515 56.3906 76.6178 55.3894 75.7944 54.9777L65.6985 49.9298L75.7944 44.8818ZM36.5039 42.6456C36.0922 43.4689 36.4259 44.4701 37.2493 44.8818L47.3452 49.9298L37.2493 54.9777C36.4259 55.3894 36.0922 56.3906 36.5039 57.214C36.9155 58.0373 37.9167 58.3711 38.7401 57.9594L51.8177 51.4206C52.3824 51.1382 52.7391 50.5611 52.7391 49.9298C52.7391 49.2984 52.3824 48.7213 51.8177 48.439L38.7401 41.9002C37.9167 41.4885 36.9155 41.8222 36.5039 42.6456ZM28.7644 49.9279C28.7644 34.5977 41.192 22.1701 56.5222 22.1701C71.8525 22.1701 84.28 34.5977 84.28 49.9279C84.28 65.2581 71.8525 77.6857 56.5222 77.6857C41.192 77.6857 28.7644 65.2581 28.7644 49.9279ZM56.5222 18.8365C39.351 18.8365 25.4309 32.7566 25.4309 49.9279C25.4309 67.0992 39.351 81.0192 56.5222 81.0192C73.6935 81.0192 87.6136 67.0992 87.6136 49.9279C87.6136 32.7566 73.6935 18.8365 56.5222 18.8365ZM115.567 22.9353C114.83 20.6249 112.359 19.3496 110.049 20.0868L101.443 22.833C99.1325 23.5703 97.8571 26.041 98.5944 28.3514C99.3317 30.6619 101.802 31.9372 104.113 31.1999L112.719 28.4537C115.029 27.7165 116.305 25.2458 115.567 22.9353ZM111.062 23.2626C111.619 23.085 112.214 23.3922 112.392 23.9487C112.569 24.5052 112.262 25.1003 111.706 25.2779L103.099 28.0241C102.543 28.2017 101.948 27.8945 101.77 27.338C101.593 26.7815 101.9 26.1864 102.456 26.0088L111.062 23.2626ZM3.16389 74.7343C0.8355 75.4128 -0.502004 77.8503 0.176492 80.1787C0.854988 82.5071 3.29255 83.8446 5.62094 83.1661L14.2939 80.6388C16.6223 79.9603 17.9598 77.5228 17.2813 75.1944C16.6028 72.866 14.1652 71.5285 11.8368 72.207L3.16389 74.7343ZM3.37694 79.2461C3.21351 78.6853 3.53567 78.0981 4.09651 77.9347L12.7694 75.4074C13.3303 75.244 13.9174 75.5662 14.0808 76.127C14.2443 76.6878 13.9221 77.275 13.3613 77.4384L4.68833 79.9657C4.1275 80.1291 3.54037 79.8069 3.37694 79.2461ZM11.9811 97.6599C10.0636 96.175 9.71291 93.4168 11.1978 91.4993L16.7288 84.3568C18.2137 82.4393 20.9719 82.0886 22.8894 83.5735C24.807 85.0584 25.1577 87.8166 23.6728 89.7341L18.1417 96.8766C16.6568 98.7941 13.8986 99.1448 11.9811 97.6599ZM13.8335 93.5403C13.4758 94.0022 13.5603 94.6666 14.0222 95.0242C14.484 95.3819 15.1484 95.2974 15.5061 94.8356L21.0371 87.6931C21.3947 87.2312 21.3103 86.5669 20.8484 86.2092C20.3865 85.8515 19.7222 85.936 19.3645 86.3979L13.8335 93.5403Z" fill="url(#paint0_linear_7225_9422)" fill-opacity="0.5"/>
</g>
<defs>
<linearGradient id="paint0_linear_7225_9422" x1="-7.15081e-07" y1="51.8744" x2="116.63" y2="71.1225" gradientUnits="userSpaceOnUse">
<stop stop-color="#BEBEBE" stop-opacity="0.2"/>
<stop offset="0.34375" stop-color="#BEBEBE" stop-opacity="0.8"/>
<stop offset="0.697917" stop-color="#BEBEBE" stop-opacity="0.8"/>
<stop offset="1" stop-color="#BEBEBE" stop-opacity="0.2"/>
</linearGradient>
</defs>
</svg>

<svg width="120" height="120" fill="none" xmlns="http://www.w3.org/2000/svg"><path fill-rule="evenodd" clip-rule="evenodd" d="M97.057 6.792a4.391 4.391 0 1 1 7.077 5.2l-5.348 7.28a4.391 4.391 0 0 1-7.078-5.2zm4.165 1.747a1.06 1.06 0 0 0-1.479.226l-5.348 7.28a1.058 1.058 0 0 0 1.705 1.253l5.348-7.28a1.06 1.06 0 0 0-.226-1.479M17.867 49.93c0-21.35 17.307-38.656 38.656-38.656s38.656 17.306 38.656 38.655c0 21.35-17.307 38.656-38.656 38.656-21.35 0-38.656-17.307-38.656-38.656m38.656-41.99c-23.19 0-41.99 18.8-41.99 41.99s18.8 41.989 41.99 41.989a41.8 41.8 0 0 0 20.935-5.583l5.45 5.45a8.31 8.31 0 0 0 2.422 6.455l16.817 16.818a8.335 8.335 0 0 0 11.786 0l3.626-3.627a8.333 8.333 0 0 0 0-11.786l-16.817-16.817a8.32 8.32 0 0 0-6.457-2.422l-4.652-4.652a41.8 41.8 0 0 0 8.879-25.826c0-23.19-18.8-41.989-41.99-41.989m34.149 73.569-3.201-3.201a42.2 42.2 0 0 1-7.124 6.202l3.661 3.662a8.4 8.4 0 0 1 1.322-1.717l3.626-3.626a8.4 8.4 0 0 1 1.716-1.32M75.794 44.881a1.667 1.667 0 1 0-1.49-2.982L61.226 48.44a1.667 1.667 0 0 0 0 2.982l13.078 6.538a1.667 1.667 0 1 0 1.49-2.981L65.698 49.93zm-39.29-2.236a1.667 1.667 0 0 0 .745 2.236l10.096 5.048-10.096 5.048a1.667 1.667 0 0 0 1.491 2.981l13.078-6.538a1.667 1.667 0 0 0 0-2.982L38.74 41.9a1.667 1.667 0 0 0-2.236.746m-7.74 7.282c0-15.33 12.428-27.758 27.758-27.758S84.28 34.598 84.28 49.928 71.853 77.686 56.522 77.686 28.764 65.258 28.764 49.928m27.758-31.091c-17.171 0-31.091 13.92-31.091 31.09 0 17.172 13.92 31.092 31.091 31.092 17.172 0 31.092-13.92 31.092-31.091s-13.92-31.091-31.092-31.091m59.045 4.098a4.39 4.39 0 0 0-5.518-2.848l-8.606 2.746a4.391 4.391 0 1 0 2.67 8.367l8.606-2.746a4.39 4.39 0 0 0 2.848-5.519m-4.505.328a1.059 1.059 0 0 1 .644 2.015l-8.607 2.746a1.058 1.058 0 0 1-.643-2.015zM3.164 74.734a4.391 4.391 0 1 0 2.457 8.432l8.673-2.527a4.391 4.391 0 1 0-2.457-8.432zm.213 4.512a1.06 1.06 0 0 1 .72-1.311l8.672-2.528a1.058 1.058 0 0 1 .592 2.031l-8.673 2.528a1.06 1.06 0 0 1-1.311-.72M11.98 97.66a4.39 4.39 0 0 1-.783-6.16l5.53-7.143a4.391 4.391 0 0 1 6.945 5.377l-5.531 7.143a4.39 4.39 0 0 1-6.16.783m1.853-4.12a1.058 1.058 0 1 0 1.672 1.296l5.531-7.143a1.058 1.058 0 0 0-1.672-1.295z" fill="url(#prefix__a)" fill-opacity=".5" opacity=".5"/><defs><linearGradient id="prefix__a" x1="0" y1="51.874" x2="116.63" y2="71.123" gradientUnits="userSpaceOnUse"><stop stop-color="#BEBEBE" stop-opacity=".2"/><stop offset=".344" stop-color="#BEBEBE" stop-opacity=".8"/><stop offset=".698" stop-color="#BEBEBE" stop-opacity=".8"/><stop offset="1" stop-color="#BEBEBE" stop-opacity=".2"/></linearGradient></defs></svg>
